X: 812
T: Missa O admirabile commercium Agnus II
C: Giovanni Perluigi da Palestrina
L: 1/4
M: 4/2
N: Derived from Agnus_II_72.krn
V: 1 clef=treble
V: 2 clef=treble
V: 3 clef=treble-8
V: 4 clef=treble-8
V: 5 clef=bass
K: C
[V:1] z8 | 
[V:2] z8 | 
[V:3] z4g4- | 
[V:4] z2c2e2d2 | 
[V:5] C6B,2 | 
[V:1] z8 | 
[V:2] z8 | 
[V:3] g2c2d2e2- | 
[V:4] e2^f2g2a2- | 
[V:5] C2A,2B,2C2- | 
[V:1] z4c4- | 
[V:2] z4z2C2 | 
[V:3] edd2c4 | 
[V:4] agg4^f2 | 
[V:5] CB,B,A,/ G,/A,4 | 
[V:1] c2B2c2A2 | 
[V:2] E2D2E2^F2 | 
[V:3] z2G2c2d2 | 
[V:4] g4z4 | 
[V:5] G,4z4 | 
[V:1] B2c2>B2BA/ G/ | 
[V:2] G2A2>G2G2- | 
[V:3] B2A2e4 | 
[V:4] z8 | 
[V:5] z8 | 
[V:1] A4B3c | 
[V:2] G2^F2G4- | 
[V:3] d4z2G2 | 
[V:4] z2d4e2 | 
[V:5] z4G,4- | 
[V:1] d4z4 | 
[V:2] G2A2G4 | 
[V:3] B2A2B2c2 | 
[V:4] d2>c2BAG2 | 
[V:5] G,2^F,2G,2E,2 | 
[V:1] z8 | 
[V:2] z8 | 
[V:3] d2e2>d2d2- | 
[V:4] A2B2>A2A2 | 
[V:5] F,2G,2>F,2F,E,/ D,/ | 
[V:1] z2G2B2A2 | 
[V:2] G6^F2 | 
[V:3] d2^c2d4 | 
[V:4] G4z2d2 | 
[V:5] E,4D,4 | 
[V:1] B2c2d2e2- | 
[V:2] G2E2F2G2- | 
[V:3] z8 | 
[V:4] G2A2d2c2- | 
[V:5] z8 | 
[V:1] edd4^c2 | 
[V:2] GFFE/ D/E4 | 
[V:3] z4z2a2- | 
[V:4] cd_B2A4 | 
[V:5] z8 | 
[V:1] d4z4 | 
[V:2] D4E4 | 
[V:3] a2g2a3g | 
[V:4] _B4A2a2- | 
[V:5] z2D4^C2 | 
[V:1] z8 | 
[V:2] D4z2A2- | 
[V:3] fed2e2f2 | 
[V:4] a2g2a3g | 
[V:5] D2_B,2C2D2- | 
[V:1] z8 | 
[V:2] A2G2A2c2- | 
[V:3] d4c4 | 
[V:4] fed2e2f2 | 
[V:5] DC_B,2A,4 | 
[V:1] z4z2d2 | 
[V:2] c2BAB2B2 | 
[V:3] d4z2g2 | 
[V:4] g8- | 
[V:5] G,8 | 
[V:1] e4^f2f2 | 
[V:2] c4A2A2 | 
[V:3] c4d2d2 | 
[V:4] g4z4 | 
[V:5] z8 | 
[V:1] g2g2e4 | 
[V:2] G2B2c3B | 
[V:3] e2e2cded/ e/ | 
[V:4] z8 | 
[V:5] z4z2C2 | 
[V:1] d2c4B2 | 
[V:2] A4G3F | 
[V:3] f2>e2d2e2- | 
[V:4] z4z2g2 | 
[V:5] F,4G,2G,2 | 
[V:1] c4z4 | 
[V:2] E2^F2G4- | 
[V:3] edc4BA | 
[V:4] c4d2d2 | 
[V:5] A,4G,3F, | 
[V:1] g4c4 | 
[V:2] G4A4 | 
[V:3] B4A2a2- | 
[V:4] e2d2>c2c2- | 
[V:5] E,F,G,2F,3E, | 
[V:1] d2d2e2e2 | 
[V:2] z4G4 | 
[V:3] a2gfede2 | 
[V:4] c2B2c4- | 
[V:5] D,4C,2C2 | 
[V:1] c2c2z2d2 | 
[V:2] A4B2B2 | 
[V:3] f4d4 | 
[V:4] c4z2g2 | 
[V:5] F,4G,4 | 
[V:1] e4^f2f2 | 
[V:2] c2c2A4 | 
[V:3] z8 | 
[V:4] c4d2d2 | 
[V:5] z8 | 
[V:1] g2e2d4 | 
[V:2] G2c4B2 | 
[V:3] z4z2g2 | 
[V:4] e2>^f2g4 | 
[V:5] z4G,4 | 
[V:1] c4z4 | 
[V:2] c4z4 | 
[V:3] c4d2d2 | 
[V:4] e2a4g2- | 
[V:5] A,4B,2B,2 | 
[V:1] z4e4- | 
[V:2] z4c4- | 
[V:3] e6^f2 | 
[V:4] gfedc4 | 
[V:5] C2C2A,4 | 
[V:1] e2d2c2B2 | 
[V:2] c2B2A2G2- | 
[V:3] g4c4 | 
[V:4] z8 | 
[V:5] G,4z4 | 
[V:1] A4G4- | 
[V:2] G2^F2G=FED | 
[V:3] d4z4 | 
[V:4] z4e4- | 
[V:5] z4C4- | 
[V:1] G4z4 | 
[V:2] C2G2F2E2 | 
[V:3] z8 | 
[V:4] e2d2c2B2 | 
[V:5] C2B,2A,2G,2 | 
[V:1] z2c4B2 | 
[V:2] D2C2E4 | 
[V:3] a6g2 | 
[V:4] A2B2cde2 | 
[V:5] F,4E,4 | 
[V:1] A2c2def2- | 
[V:2] z2A2FGAB | 
[V:3] f2e2d4 | 
[V:4] A4a4- | 
[V:5] z8 | 
[V:1] f2e2d2c2- | 
[V:2] c4A2A2 | 
[V:3] c4F4 | 
[V:4] a2g2f2e2 | 
[V:5] z8 | 
[V:1] c2B2c2A2- | 
[V:2] G4E2c2- | 
[V:3] G4A3B | 
[V:4] d4c3d | 
[V:5] z4A,4- | 
[V:1] A2B2c2c2 | 
[V:2] c2B2A2G2 | 
[V:3] c2d2>c2c2- | 
[V:4] e^fg2c4 | 
[V:5] A,2G,2F,2E,2 | 
[V:1] d4G4 | 
[V:2] F4E2c2- | 
[V:3] c2B2c2e2- | 
[V:4] z4z2g2- | 
[V:5] D,4C,2C,2- | 
[V:1] z8 | 
[V:2] c2B2A2G2- | 
[V:3] e2d2c2B2 | 
[V:4] g2f2f2e2 | 
[V:5] C,2D,2F,2G,2 | 
[V:1] z4A4 | 
[V:2] G2^FEF4 | 
[V:3] A8 | 
[V:4] d2>c2ded2- | 
[V:5] D,8 | 
[V:1] B2c2d4 | 
[V:2] G2E2D4 | 
[V:3] G4g3f | 
[V:4] d2c4B2 | 
[V:5] G,8 | 
[V:1] e8 | 
[V:2] G8 | 
[V:3] e2d2c4 | 
[V:4] c8 | 
[V:5] C,8 | 
[V:1] d8 |]  
[V:2] G8 |]  
[V:3] B8 |]  
[V:4] d8 |]  
[V:5] G,8 |]  

